!!!!SEGMENT: sonata18-1.krn
!!!COM: Beethoven, Ludwig van
!!!CDT: 1770-1827
!!!OTL: Piano Sonata no. 18 in E-flat major
!!!OTP: the hunt
!!!ODT: 1794-1795
!!!OPS: 31
!!!ONM: 3
!!!OMV: 1
!!!OMD: Allegro
!!!AGN: Sonata
**kern	**kern	**dynam
*staff2	*staff1	*staff1/2
*Ipiano	*Ipiano	*Ipiano
*>[A,A,B]	*>[A,A,B]	*>[A,A,B]
*>norep[A,B]	*>norep[A,B]	*>norep[A,B]
*>A	*>A	*>A
*clefF4	*clefG2	*
*k[b-e-a-]	*k[b-e-a-]	*
*E-:	*E-:	*
*M3/4	*M3/4	*
*MM120	*MM120	*
=1-	=1-	=1-
*	*^	*
!	!	!	!LO:DY:rj
2AA- 2E- 2F 2A-	(8.ccL	2c 2e-	p
.	16fJk	.	.
.	4f)	.	.
4r	4r	4r	.
=2	=2	=2	=2
2AA- 2E- 2F 2A-	(8.ccL	2c 2e-	.
.	16fJk)	.	.
.	4f	.	.
4r	4r	4r	.
*	*v	*v	*
=3	=3	=3
!!LO:TX:a:B:t=Ritard.
(4AAA-' 4EE-'	(4c' 4e-' 4f'	.
4AAA-' 4EE-'	4c' 4e-' 4f'	.
4AAA-') 4EE-'	4c') 4e-' 4f'	.
=4	=4	=4
2.AAAn 2.EE-	2.c 2.e- 2.g-	<
=5	=5	=5
4AAn' 4E-' (4G-'	(4c' 4e-' 4g-'	.
4AA' 4E-' 4G-'	4c' 4e-' 4g-'	.
4AA' 4E-' 4G-')	4c') 4e-' 4g-'	.
=6	=6	=6
!	!	!LO:DY:rj
2.BB-; 2.E-; 2.Gn;	2.B-; 2.e-; 2.gn;	sf
!!LO:LB:g=original
=7	=7	=7
*	*^	*
!	!LO:TX:a:B:t=a Tempo	!	!LO:DY:rj
4BBB- 4BB-	(8gL	4A- 4d	p
.	8fJ)	.	.
4BBB- 4BB-	(16fLL	4A- 4d	.
.	16g	.	.
.	16f	.	.
.	16enJJ	.	.
4BBB- 4BB-	(8fL)	4A- 4d	.
.	8gJ)	.	.
*	*v	*v	*
=8	=8	=8
4EE- 4E-	16G (>16e-XLL	.
.	16f	.
.	16e-	.
.	16dJJ)	.
4r	12e-'L	.
.	12f'	.
.	12g'J	.
4r	12a-'L>	.
.	12b-'	.
.	12cc'J	.
=9	=9	=9
*	*Xtuplet	*
2.r	12dd'L	.
.	12ee-'	.
.	12ff'J	.
.	12ff#'L	.
.	12gg'	.
.	12aa-'J	.
.	12aan'L	.
.	12bb-'	.
.	12bbn'J	.
*clefG2	*	*
=10	=10	=10
2a- 2cc 2ee-	(8.cccL	.
.	16ffnJk)	.
.	4ff	.
4r	4r	.
*clefF4	*	*
=11	=11	=11
.	(8bnq	.
2A- 2c 2e-	(8.ccL)	.
.	16fJk)	.
.	4f	.
4r	4r	.
*	*clefF4	*
!!LO:LB:g=original
=12	=12	=12
!	!LO:TX:a:B:t=Ritard.	!
(4AAA-' 4AA-'	4C' 4E-' (4F'	.
4AAA-' 4AA-'	4C' 4E-' 4F'	.
4AAA-') 4AA-'	4C' 4E-' 4F')	.
=13	=13	=13
2.AAAn 2.AAn	2.C 2.E- 2.G-	.
*clefG2	*clefG2	*
=14	=14	=14
(4an'	4cc' 4ee-' (4gg-'	<
4a'	4cc' 4ee-' 4gg-'	.
4a')	4cc' 4ee-' 4gg-')	.
=15	=15	=15
2.b-;	2.ee-; 2.ggn;	sf
*clefF4	*	*
=16	=16	=16
*	*^	*
!	!LO:TX:B:a:t=a Tempo	!	!
4BBB- 4BB-	(8gL	4A- 4d	p
.	8fJ)	.	.
4BBB- 4BB-	(16fLL	4A- 4d	.
.	16g	.	.
.	16f	.	.
.	16enJJ)	.	.
4BBB- 4BB-	(8fL	4A- 4d	.
.	8gJ)	.	.
*	*v	*v	*
=17	=17	=17
8EE- 8E-L	4G 4e-X	.
8E-	.	.
8E-	4r	.
8E-	.	.
8E-	4r	.
8E-J	.	.
!!LO:LB:g=original
=18	=18	=18
*^	*	*
.	.	(8dddq	.
2.c 2.e-	8E-L	(8.eee-L)	.
.	8E-	.	.
.	.	16aa-Jk)	.
.	8E-	4aa-	.
.	8E-	.	.
.	8E-	4r	.
.	8E-J	.	.
=19	=19	=19	=19
.	.	(8ddq	.
2.B- 2.d	8E-L	(8.ee-L)	.
.	8E-	.	.
.	.	16gJk)	.
.	8E-	4g	.
.	8E-	.	.
.	8E-	4r	.
.	8E-J	.	.
=20	=20	=20	=20
4A- 4c	8E-L	(16ee-LL>	.
.	.	16fJJ)	.
.	8E-	8r	.
4A- 4c	8E-	(16ee-LL>	.
.	.	16fJJ)	.
.	8E-	8r	.
4A- 4c-	8E-	(16ddLL	.
.	.	16fJJ)	.
.	8E-J	8r	.
=21	=21	=21	=21
4G 4B-	8E-L	(16ee-LL	.
.	.	16e-JJ)	.
.	8E-	8r	.
4r	8E-	4r	.
.	8E-	.	.
4r	8E-	4r	.
.	8E-J	.	.
=22	=22	=22	=22
2.c 2.e-	8E-L	(<4eee-T	.
.	8E-	.	<
.	.	16dddqLL	.
.	.	16eee-qJJ)	.
.	8E-	8aa-'	.
.	8E-	8r	.
.	8E-	4r	.
.	8E-J	.	.
!!LO:LB:g=original
=23	=23	=23	=23
2.B- 2.d	8E-L	(<4ee-T	.
.	8E-	.	.
.	.	16ddqLL	.
.	.	16ee-qJJ)	.
.	8E-	8g'	.
.	8E-	8r	.
.	8E-	4r	.
.	8E-J	.	.
=24	=24	=24	=24
4A- 4c	8E-L	(16ee-LL>	.
.	.	16fJJ)	.
.	8E-	8r	.
4A- 4c	8E-	(16ee-LL>	.
.	.	16fJJ)	.
.	8E-	8r	.
4A- 4c-	8E-	(16ddLL	.
.	.	16fJJ)	.
.	8E-J	8r	.
*v	*v	*	*
=25	=25	=25
4E- 4G 4B-	(16e-LL	p
.	16f	.
.	16e-	.
.	16dJJ	.
4r	16e-LL	.
.	16f	.
.	16g	.
.	16a-JJ)	.
8r	8b-'L	.
8G'	8g'J	.
=26	=26	=26
8F'L	8f'L	.
8A-'	8a-'	.
8D'	8d'	.
8F'	8f'	.
8BB-	8B-'	.
8D'J	8d'J	.
=27	=27	=27
4E-	(16e-LL	.
.	16f	.
.	16e-	.
.	16dJJ	.
4r	16e-LL	.
.	16f	.
.	16g	.
.	16a-JJ	.
(16cLL	16ccLL	.
16B-	16b-	.
16A-	16a-	.
16GJJ)	16gJJ)	.
!!LO:LB:g=original
=28	=28	=28
8F'L	8f'L	.
8A-'	8a-'	.
8D'	8d'	.
8F'	8f'	.
8BB-'	8B-'	.
8D'J	8d'J	.
=29	=29	=29
8E-'L	8e-'L	.
8G'	8g'	.
8C'	8c'	.
8E-'	8e-'	.
8AAn'	8An'	.
8C'J	8c'J	.
=30	=30	=30
8FF'L<	8F'L	.
8AAn'	8An'	.
8C'	8c'	.
8En'	8en'	.
8F'	8f'	.
8AAn'J	8An'J	.
=31	=31	=31
8BB-'L	8B-'L	.
8D'	8d'	.
8F'	8f'	.
(8An	(8an	<
8B-')	8b-')	.
(8AJ	(8aJ	.
=32	=32	=32
8B-'L)	8b-'L)	.
(8An	(8an	.
8B-')	8b-')	.
(8A	(8a	.
8B-')	8b-')	.
(8B-J	(8b-J	.
=33	=33	=33
*	*^	*
!	!	!	!LO:DY:rj
2AA-X 2E- 2F 2A-X)	(8.cc-L)	2c- 2e-	p
.	16fJk)	.	.
.	4f	.	.
4r	4r	4r	.
!!LO:LB:g=original
=34	=34	=34	=34
2AA- 2E- 2F 2A-	(8.cc-L	2c- 2e-	.
.	16fJk	.	.
.	4f)	.	.
4r	4r	4r	.
*	*v	*v	*
=35	=35	=35
4A-' (4c-'	(4e-' 4f'	<
4A-' 4c-'	4e-' 4f'	.
4G-' 4c-')	4e-') 4g-'	[[
=36	=36	=36
*	*^	*
2.F 2.c-	2.a-	(2e-	>
.	.	4d)	]
*clefG2	*	*	*
*	*v	*v	*
=37	=37	=37
4a-' (4cc-'	4ee-' (4ff'	<
4a-' 4cc-'	4ee-' 4ff'	.
4g-'\ 4cc-'\)	4ee-' 4gg-')	[
=38	=38	=38
*	*^	*
2.f 2.cc-	2.aa-	(2ee-	>
.	.	4dd)	]]
*clefF4	*	*	*
*	*v	*v	*
=39	=39	=39
4B-' (4d-'	(4f' 4gn'	<
4B-' 4d-'	4f' 4g'	.
4A-' 4d-')	4f') 4a-'	[[
=40	=40	=40
*	*^	*
2.G 2.d-	2.b-	(2f	>
.	.	4en)	]]
*clefG2	*	*	*
*	*v	*v	*
!!LO:LB:g=original
=41	=41	=41
4b-' (4dd-'	4ff' (4gg'	<
4b-' 4dd-'	4ff' 4gg'	.
4a-' 4dd-')	4ff' 4aa-')	[[
=42	=42	=42
*	*^	*
2.g 2.dd-	2.bb-	(2ff	>
.	.	4een)	]]
*	*v	*v	*
=43	=43	=43
4r	(4ddd-	p
4g- 4b-	4een)	.
4r	4r	.
=44	=44	=44
4r	(4fff	f
!	!	!LO:DY:b=2:rj
4f' 4an'	4ff)	f
*clefF4	*	*
!	!LO:TX:c:i:t=d.	!LO:DY:b=2:rj
4F'	4r	f
=45	=45	=45
!	!	!LO:DY:b=2:rj
4FF'	4r	f
!	!	!LO:DY:b=2:rj
4FFF'	4r	f
4r	8r	.
.	8ff'	p
=46	=46	=46
16DLL	4.bb-	.
16B-	.	.
16F	.	.
16B-JJ	.	.
16DLL	.	.
16B-	.	.
16F	(16aanLL	.
16B-JJ	16bb-JJ	.
16DLL	8cccL	.
16B-	.	.
16F	8bb-J)	.
16B-JJ	.	.
!!LO:LB:g=original
=47	=47	=47
16DLL	4.ff	.
16B-	.	.
16F	.	.
16B-JJ	.	.
16DLL	.	.
16B-	.	.
16F	(16ggLL	.
16B-JJ	16ffJJ	.
16DLL	8ee-L	.
16B-	.	.
16F	8ddJ)	.
16B-JJ	.	.
=48	=48	=48
16E-LL	(16ff#LL	.
16B-	16ggJJ)	.
16G	8r	.
16B-JJ	.	.
16E-LL	(16ff#LL	.
16B-	16ggJJ)	.
16G	8r	.
16B-JJ	.	.
16E-LL	(16ddLL	.
16Bn	16ee-JJ)	.
16G	8r	.
16BJJ	.	.
=49	=49	=49
16E-LL	(16bnLL	.
16c	16ccJJ)	.
16G	8r	.
16cJJ	.	.
16E-LL	4r	.
16c	.	.
16G	.	.
16cJJ	.	.
16EnLL	8r	.
16c	.	.
16B-X	8ccc'	.
16cJJ	.	.
=50	=50	=50
16FLL	(4.eee-	.
16c	.	.
16An	.	.
16cJJ	.	.
16FLL	.	.
16c	.	.
16A	16fffLL	.
16cJJ	16eee-JJ	.
16FLL	8dddL	.
16c	.	.
16A	8cccJ)	.
16cJJ	.	.
!!LO:LB:g=original
=51	=51	=51
16FLL	(8bb-L	.
16e-	.	.
16c	8aan	.
16e-JJ	.	.
16FLL	8gg	.
16e-	.	.
16An	8ff	.
16e-JJ	.	.
16F#LL	8ee-	.
16e-	.	.
16A	8ccJ)	.
16e-JJ	.	.
=52	=52	=52
16GLL	(8b-L	.
16d	.	.
16B-	8dd	.
16dJJ	.	.
16E-LL	8g	.
16c	.	.
16G	8ee-	.
16cJJ	.	.
16FnLL	8an	.
16c	.	.
16An	8ccJ)	.
16e-JJ	.	.
=53	=53	=53
4BB- 4B-	(16b-LL	.
.	16d	.
.	16f	.
.	16e-JJ)	.
*	*tuplet	*
4r	(20dLL	.
.	20e-	.
.	20f	.
.	20g	.
.	20anJJ)	.
4r	(48b-LLL	.
.	48a	.
.	48cc	.
.	48b-	.
.	48dd	.
.	48cc	.
.	48b-	.
.	48a	.
.	48g	.
.	48f	.
.	48g	.
.	48e-JJJ)	.
!!LO:LB:g=original
=54	=54	=54
2.r	(>16dLL	.
.	16f	.
.	16e-	.
.	16dJJ	.
.	16e-LL	.
.	16f	.
.	16g	.
.	16anJJ	.
.	16b-LL	.
.	16a	.
.	16g	.
.	16fJJ	.
=55	=55	=55
2.r	16gLL<	.
.	16an	.
.	16b-	.
.	16ccJJ	.
.	16ddLL	.
.	16cc	.
.	16b-	.
.	16aJJ	.
.	16b-LL	.
.	16cc	.
.	16dd	.
.	16ee-JJ	.
=56	=56	=56
2.r	16ggLL	.
.	16ff	.
.	16ee-	.
.	16ddJJ	.
.	12ffL	.
.	12ee-	.
.	12ddJ	.
.	16ee-LL	.
.	16ff	.
.	16gg	.
.	16aanJJ	.
=57	=57	=57
16DLL	4.bb-)	.
16B-	.	.
16F	.	.
16B-JJ	.	.
16DLL	.	.
16B-	.	.
16F	(16aanLL	.
16B-JJ	16bb-JJ)	.
16DLL	(16aaLL	.
16B-	16bb-)	.
16F	(16ccc	.
16B-JJ	16bb-JJ)	.
!!LO:LB:g=original
=58	=58	=58
16DLL	4.ff	.
16B-	.	.
16F	.	.
16B-JJ	.	.
16DLL	.	.
16B-	.	.
16F	(16eenLL	.
16B-JJ	16ffJJ)	.
16DLL	(16ggLL	.
16B-	16ff)	.
16F	(16ee-	.
16B-JJ	16ddJJ)	.
=59	=59	=59
16E-LL	(16ff#LL	.
16B-	16gg)	.
16G	(16ff#	.
16B-JJ	16ggJJ)	.
16E-LL	(16ff#LL	.
16B-	16gg)	.
16G	(16ff#	.
16B-JJ	16ggJJ)	.
16E-LL	(16ddLL	.
16Bn	16ee-)	.
16G	(16dd	.
16BJJ	16ee-JJ)	.
=60	=60	=60
16E-LL	(16bnLL	.
16c	16cc)	.
16G	(16b	.
16cJJ	16ccJJ)	.
16E-LL	4r	.
16c	.	.
16G	.	.
16cJJ	.	.
16EnLL	8r	.
16c	.	.
16B-X	8ccc	.
16cJJ	.	.
!!LO:LB:g=original
=61	=61	=61
16FLL	(4.eee-	.
16c	.	.
16An	.	.
16cJJ	.	.
16FLL	.	.
16c	.	.
16A	16dddLL	.
16cJJ	16eee-JJ	.
16FLL	16fffLL	.
16c	16eee-	.
16A	16ddd	.
16cJJ	16cccJJ	.
=62	=62	=62
16FLL	16bb-LL	.
16e-	16aan	.
16c	16ddd	.
16e-JJ	16cccJJ	.
16FLL	16bb-LL	.
16e-	16aa	.
16An	16gg	.
16e-JJ	16ffJJ	.
16F#LL	16ee-LL	.
16e-	16dd	.
16A	16ee-	.
16e-JJ	[16ccJJ	.
=63	=63	=63
16GLL	16ccLL]	.
16d	16b-J	.
16B-	8.ddJ	.
16dJJ	.	.
16E-LL	.	.
16c	16gLK	.
16G	8.ee-J	.
16cJJ	.	.
16FLL	.	.
16c	16anLK	.
16An	8ccJ	.
16e-JJ	.	.
=64	=64	=64
16BB-LL	8b-)	.
16D	.	.
16E-	8r	.
16FJJ	.	.
4r	16GLL	.
.	16An	.
.	16B-	.
.	16cJJ	.
4r	16dLL	.
.	16e-	.
.	16f	.
.	16gJJ	.
!!LO:LB:g=original
=65	=65	=65
8r	2f^	.
8AAn 8C 8FL	.	.
8AA 8C 8F	.	.
8AA 8C 8F	.	.
8AA 8C 8F	4e-T	.
8AA 8C 8FJ	.	.
=66	=66	=66
16B-LL	16d	.
16d	16r	.
16e-	8r	.
16fJJ	.	.
4r	16gLL<	.
.	16an	.
.	16b-	.
.	16ccJJ	.
4r	16ddLL	.
.	16ee-	.
.	16ff	.
.	16ggJJ	.
=67	=67	=67
8r	2ff^	.
8An 8c 8fL	.	.
8A 8c 8f	.	.
8A 8c 8f	.	.
8A 8c 8f	4ee-T	.
8A 8c 8fJ	.	.
.	(16ddqLL	.
.	16ee-qJJ	.
=68	=68	=68
8r	4dd)	.
8B- 8d	.	<
8r	4ccT	.
8F# 8An 8d	.	.
.	(16bnqLL	.
.	16ccqJJ	.
8r	4b-)	.
8G 8B- 8d	.	.
!!LO:LB:g=original
=69	=69	=69
8r	4a-XT	.
8D 8F 8B-	.	.
.	(16gqLL	.
.	16a-qJJ	.
8r	4g)	.
8E- 8G 8B-	.	.
8r	4fT	.
8BBn 8D 8G	.	.
.	(16enqLL	.
.	16fqJJ	.
=70	=70	=70
8r	4en)	.
8C 8En 8G	.	.
8r	4e-T	rfz
8AAn\ 8C\ 8F\	.	.
.	(16dqLL	.
.	16e-qJJ	.
8r	4d)	.
8BB- 8D 8F	.	.
=71	=71	=71
8r	4e-T	rfz
8AAn\ 8C\ 8F\	.	.
.	(16dqLL	.
.	16e-qJJ	.
8r	4d)	.
8BB- 8D 8F	.	.
8r	4e-T	rfz
8AA\ 8C\ 8F\	.	.
.	(16dqLL	.
.	16e-qJJ	.
=72	=72	=72
8BB- 8D 8F	16dLL)	p
.	16B-	.
8r	16F	.
.	16B-JJ	.
4r	16dLL	.
.	16B-	.
.	16f	.
.	16dJJ	.
4r	16b-LL	.
.	16f	.
.	16dd	.
.	16b-JJ	.
!!LO:LB:g=original
=73	=73	=73
2.r	16fLL	.
.	16d	.
.	16b-	.
.	16fJJ	.
.	16ddLL	.
.	16b-	.
.	16ff	.
.	16ddJJ	.
.	16b-LL<	.
.	16f	.
.	16dd	.
.	16b-JJ	.
=74	=74	=74
2.r	16ffLL	<
.	16dd	.
.	16bb-	.
.	16ffJJ	.
.	16ddLL	.
.	16b-	.
.	16ff	.
.	16ddJJ	.
.	16bb-LL	.
.	16ff	.
.	16ddd	.
.	16bb-JJ	.
*clefG2	*	*
=75	=75	=75
8r	8fff'L	.
8f'L<	8ff'	.
8b-'	8bb-'	.
8dd'J	8ddd'	.
8ff'	8fff'	.
8r	8f'J	.
=76	=76	=76
4r	8b-'L	.
.	8dd'	.
8r	8ff'J	.
*clefF4	*	*
8FF'L	8F'L	f
8BB-'	8B-'	.
8D'J	8d'J	.
!!LO:LB:g=original
=77	=77	=77
4F'	8f'L	p
.	8b-'	.
4r	8dd'	.
.	8ff'	.
4r	8ee-'	.
.	8dd'J	.
=78	=78	=78
8r	[2.ccTT	.
8F'L	.	.
8An'	.	.
8c'	.	.
8e-'	.	.
8FF'J	.	.
=79	=79	=79
8AAn'L	2.cc_TTT	<
8C'	.	.
8E-'	.	.
8GG-'	.	.
8AA'	.	.
8C'J	.	.
=80	=80	=80
8E-'L	2.cc_TTT	.
8FF'	.	.
8AAn'	.	.
8C'	.	.
8E-'	.	.
8F'J	.	.
=81	=81	=81
8An'L	2cc]TTT	f
8c'	.	.
8e-'	.	.
8F'	.	.
.	(16bnqLL	.
.	16ccqJJ	.
8e-'	8ff'L)	.
8F'J	8ff'J	.
=82	=82	=82
4B- 4d	8b-'L	.
.	(8b-	.
4r	8bn	p
.	8cc	.
4r	8cc#	.
.	8ddJ)	.
!!LO:LB:g=original
=83	=83	=83
(2.G 2.B-	(>2.ee-	.
=84	=84	=84
2.E- 2.c)	2.g)	.
=85	=85	=85
*^	*^	*
4c	4F	(8b-L	4e-	.
.	.	8anJ)	.	.
.	.	8b-q	.	.
4c	4F	(8aL	4e-	.
.	.	8g	.	.
8cL	4F	8a	4e-	.
8AnJ	.	8ccJ)	.	.
*v	*v	*	*	*
=86	=86	=86	=86
8BB-' 8B-'	8b-X'L	8d	<
(8B-L	(8b-	8rc	.
8Bn	8bn	4rc	[
8c	8cc	.	.
8c#	8cc#	4rc	.
8dJ)	8ddJ)	.	.
*	*v	*v	*
=87	=87	=87
2.e-	(>2.ee-	f
=88	=88	=88
*^	*^	*
(2G	2.E-	(2g)	2.e-	>
8A-L	.	8a-XL	.	.
8B-J)	.	8b-XJ)	.	]]
*v	*v	*	*	*
*	*v	*v	*
=89:|!	=89:|!	=89:|!
*>B	*>B	*>B
*	*^	*
2AA- 2E- 2F 2A-	(8.ccL	2c 2e-	p
.	16fJk)	.	.
.	4f	.	.
4r	4r	4r	.
=90	=90	=90	=90
2AA- 2E- 2F 2A-	(8.ccL	2c 2e-	.
.	16fJk	.	.
.	4f)	.	.
4r	4r	4r	.
*	*v	*v	*
!!LO:LB:g=original
=91	=91	=91
!	!LO:TX:B:a:t=Ritard.	!
(4AAA-' 4CC' 4AA-'	(4F' 4c' 4e-' 4f'	.
4AAA-' 4CC' 4AA-'	4F' 4c' 4e-' 4f'	.
4AAA-') 4CC' 4AA-'	4F') 4c' 4e-' 4f'	.
=92	=92	=92
2.AAA- 2.CC 2.AA-	2.F# 2.c 2.e- 2.f#	.
=93	=93	=93
(4AAA-' 4CC' 4AA-'	(4F#' 4c' 4e-' 4f#'	<
4AAA-' 4CC' 4AA-'	4F#' 4c' 4e-' 4f#'	.
4AAA-') 4CC' 4AA-'	4F#') 4c' 4e-' 4f#'	.
=94	=94	=94
2.GGG 2.CC 2.GG	2.G 2.c 2.e- 2.g	.
=95	=95	=95
(4GGG' 4CC' 4GG'	(4G' 4c' 4e-' 4g'	[
4GGG' 4CC' 4GG'	4G' 4c' 4e-' 4g'	.
4GGG') 4CC' 4GG'	4G') 4c' 4e-' 4g'	.
=96	=96	=96
4FFF# 4CC 4FF#	4An 4c 4e- 4an	.
!	!LO:TX:a:B:t=a Tempo	!
4r	(8.eee-XL	f
.	16aanJk)	.
4r	4aa	.
=97	=97	=97
!	!	!LO:DY:b=2
4Fn 4Bn	4r	f
4r	(8.a-XL	.
.	16dJk)	.
4r	4d	.
=98	=98	=98
4EE- 4GG	4rc<	.
4r	(8.G<L	.
.	16C<Jk)	.
4r	4C<	.
!!LO:LB:g=original
=99	=99	=99
(8.FFL	4rA<	.
16BBBnJk)	.	.
4BBB	4rA<	.
4rCC	4D< 4F< 4G<	f
=100	=100	=100
8CCL	2.r	fp
8C	.	.
8C	.	.
8C	.	.
8C	.	.
8CJ	.	.
=101	=101	=101
*^	*	*
.	.	(8bbnq	.
2.An 2.c	8CL	(8.cccL)	p
.	8C	.	.
.	.	16ffJk)	.
.	8C	4ff	.
.	8C	.	.
.	8C	4r	.
.	8CJ	.	.
=102	=102	=102	=102
.	.	(8bnq	.
2.G 2.Bn	8CL	(8.ccL)	.
.	8C	.	.
.	.	16enJk)	.
.	8C	4e	.
.	8C	.	.
.	8C	4r	.
.	8CJ	.	.
=103	=103	=103	=103
4F 4An	8CL	(16ccLL	.
.	.	16dJJ)	.
.	8C	8r	.
4F 4A-	8C	(16ccLL	.
.	.	16dJJ)	.
.	8C	8r	.
4F 4G	8C	(16bnLL	.
.	.	16dJJ)	.
.	8CJ	8r	.
!!LO:LB:g=original
=104	=104	=104	=104
4En 4G	8CL	(16ccLL	.
.	.	16cJJ)	.
.	8C	8r	.
4rA	8C	4r	.
.	8C	.	.
4rA	8C	4r	.
.	8CJ	.	.
=105	=105	=105	=105
2.An 2.c	8CL	(<4cccT	.
.	8C	.	.
.	.	16bbnqLL	.
.	.	16cccqJJ)	.
.	8C	8ff'	.
.	8C	8r	.
.	8C	4r	.
.	8CJ	.	.
=106	=106	=106	=106
2.G 2.Bn	8CL	(<4ccT	.
.	8C	.	.
.	.	16bnqLL	.
.	.	16ccqJJ)	.
.	8C	8en'	.
.	8C	8r	.
.	8C	4r	.
.	8CJ	.	.
=107	=107	=107	=107
4F 4An	8CL	(16ccLL	.
.	.	16dJJ)	.
.	8C	8r	.
4F 4A-	8C	(16ccLL	.
.	.	16dJJ)	.
.	8C	8r	.
4F 4G	8C	(16bnLL	.
.	.	16dJJ)	.
.	8CJ	8r	.
*v	*v	*	*
=108	=108	=108
8C 8En 8G	8c 8cc	.
*	*clefF4	*
8r	8En 8GL	p
4r	8E 8G	.
.	8E 8G	.
4r	8E 8G	.
.	8E 8GJ	.
!!LO:LB:g=original
=109	=109	=109
(16BBnLL	8F 8GL	.
16DD-JJ)	.	.
8r	8F 8G	.
(16BBLL	8F 8G	.
16DD-JJ)	.	.
8r	8F 8G	.
(16BBLL	8F 8G	.
16DD-JJ)	.	.
8r	8F 8GJ	.
=110	=110	=110
(16CLL	8En 8GL	.
16CCJJ)	.	.
8r	8E 8G	.
*clefG2	*	*
(>4g	8E 8G	.
.	8E 8G	.
8cc)	8E 8G	.
8r	8E 8GJ	.
*clefF4	*	*
=111	=111	=111
(16BBnLL	8F 8GL	.
16DD-JJ)	.	.
8r	8F 8G	.
(16BBLL	8F 8G	.
16DD-JJ)	.	.
8r	8F 8G	.
(16BBLL	8F 8G	.
16DD-JJ)	.	.
8r	8F 8GJ	.
=112	=112	=112
(16CLL	8En 8GL	.
16CCJJ)	.	.
8r	8E 8G	.
*clefG2	*	*
(>4g	8E 8G	.
.	8E 8G	.
8een)	8E 8G	.
8r	8E 8GJ	.
*clefF4	*	*
=113	=113	=113
(16BBnLL	8F 8GL	.
16DD-JJ)	.	.
8r	8F 8G	.
(16BBLL	8F 8G	.
16DD-JJ)	.	.
8r	8F 8G	.
(16BBLL	8F 8G	.
16DD-JJ)	.	.
8r	8F 8GJ	.
*	*clefG2	*
!!LO:LB:g=original
=114	=114	=114
4CC 4C	16r	f
.	16En<LL	.
.	16c<	.
.	16G<JJ	.
4r	16enLL	.
.	16c	.
.	16g	.
.	16eJJ	.
4r	16ccLL	.
.	16g	.
.	16een	.
.	16ccJJ	.
=115	=115	=115
8r	2gg	.
8CC'L	.	.
8EEn'	.	.
8GG'	.	.
8C'	4b-XT	.
8En'J	.	.
.	(16aqLL	.
.	16b-qJJ)	.
=116	=116	=116
4F	8an	.
.	8An 8cL	p
4r	8A 8c	.
.	8A 8c	.
4r	8A 8c	.
.	8A 8cJ	.
=117	=117	=117
!	!	!LO:DY:b=2:rj
(16EEnLL	8B- 8cL	p
16GGG-JJ)	.	.
8r	8B- 8c	.
(16EELL	8B- 8c	.
16GGG-JJ)	.	.
8r	8B- 8c	.
(16EELL	8B- 8c	.
16GGG-JJ)	.	.
8r	8B- 8cJ	.
=118	=118	=118
(16FFLL	8An 8cL	.
16FFFJJ)	.	.
8r	8A 8c	.
*clefG2	*	*
(4cc	8A 8c	.
.	8A 8c	.
8ff)	8A 8c	.
8r	8A 8cJ	.
*clefF4	*	*
!!LO:LB:g=original
=119	=119	=119
(16EEnLL	8B- 8cL	.
16GGG-JJ)	.	.
8r	8B- 8c	.
(16EELL	8B- 8c	.
16GGG-JJ)	.	.
8r	8B- 8c	.
(16EELL	8B- 8c	.
16GGG-JJ)	.	.
8r	8B- 8cJ	.
=120	=120	=120
(16FFLL	8An 8cL	.
16FFFJJ)	.	.
8r	8A 8c	.
*clefG2	*	*
(4cc	8A 8c	.
.	8A 8c	.
8aan)	8A 8c	.
8r	8A 8cJ	.
*clefF4	*	*
=121	=121	=121
(16EEnLL	8B- 8cL	.
16GGG-JJ)	.	.
8r	8B- 8c	.
(16EELL	8B- 8c	.
16GGG-JJ)	.	.
8r	8B- 8c	.
(16EELL	8B- 8c	.
16GGG-JJ)	.	.
8r	8B- 8cJ	.
=122	=122	=122
(16FFLL	16r	f
16FFFJJ)	16AnLL	.
8r	16f	.
.	16cJJ	.
4r	16anLL	.
.	16f	.
.	16cc	.
.	16aJJ	.
4r	16ffLL	.
.	16cc	.
.	16aan	.
.	16ffJJ	.
!!LO:LB:g=original
=123	=123	=123
8r	2ccc	f
8FF'L<	.	.
8AAn'	.	.
8C'	.	.
8F'	4ee-XT	.
8An'J	.	.
.	(16ddqLL	.
.	16ee-qJJ)	.
=124	=124	=124
4B-	16dd-LL<	.
.	16f	.
.	16b-	.
.	16fJJ	.
4r	16dd-LL	.
.	16b-	.
.	16ff	.
.	16dd-JJ	.
4r	16bb-LL	.
.	16ff	.
.	16ddd-	.
.	16bb-JJ	.
=125	=125	=125
8r	2fff	f
8BBB-'L	.	.
8DDn'	.	.
8FF'	.	.
8BB-'	4aa-T	.
8Dn'J	.	.
.	(16ggqLL	.
.	16aa-qJJ)	.
=126	=126	=126
4E-	16ggLL	.
.	16F	.
.	16e-	.
.	16B-JJ	.
4r	16gLL	.
.	16e-	.
.	16b-	.
.	16gJJ	.
4r	16ee-LL	.
.	16b-	.
.	16gg	.
.	16ee-JJ	.
!!LO:LB:g=original
=127	=127	=127
8r	2bb-	sf
8EE-'L<	.	.
8GG'	.	.
8BB-'	.	.
8E-'	4dd-T	.
8G'J	.	.
.	(16ccqLL	.
.	16dd-qJJ)	.
=128	=128	=128
!	!	!LO:DY:t=sempre %s
8A-X'L	4cc	f
8AA-'	.	.
8C'	4r	.
8E-'	.	.
8A-'	4cct	.
8c'J	.	.
.	(16bnqLL	.
.	16ccqJJ)	.
=129	=129	=129
8r	4ccc	.
8AA-'L	.	.
8C'	4r	.
8En'	.	.
8A-'	4cct	.
8c'J	.	.
.	(16bnqLL	.
.	16ccqJJ)	.
=130	=130	=130
8r	4ccc	.
8AA-'L	.	.
8C'	4r	.
8F'	.	.
8A-'	4cct	.
8c'J	.	.
.	(16bnqLL	.
.	16ccqJJ)	.
=131	=131	=131
8r	4ccc	p
8AA-'L	.	.
8C'	4r	.
8F'	.	.
8A-'J	8r	.
8r	(8c	.
=132	=132	=132
4r	8fL	.
.	8a-	.
8r	8ccJ)	.
(8AA-L<	8r	.
8C	4r	.
8FJ	.	.
!!LO:LB:g=original
=133	=133	=133
8A-)	8r	.
8r	(8cL	.
4r	8f	.
.	8a-	.
8r	8ccJ)	.
(>8AA-	8r	.
=134	=134	=134
8CL	4r	.
8F	.	.
8A-	8r	.
8AA-	(>8cL	.
8C	8f	.
8FJ	8a-J	.
=135	=135	=135
8A-L	8ccL	<
8AA-	8c	.
8C	8f	.
8F	8a-	.
8A-	8cc	.
8AA-J	8cJ	.
=136	=136	=136
!	!	!LO:HP:a
8CL<	8fL	<
8F	8a-	.
8A-	8cc	.
*^	*^	*
*	*^	*	*^	*
*	*	*^	*	*	*^	*
8AA-	[4.AA-/	8ryy	4ryy	8c	[4.c	8ryy	4ryy	[
8C	.	[<4C/	.	8f	.	[<4f\	.	.
[8FJ)	.	.	8F/	[8a-J)	.	.	8a-\	.
*	*	*	*	*v	*v	*v	*v	*
*v	*v	*v	*v	*	*
=137	=137	=137
*	*^	*
!	!	!	!LO:HP:a
2AA-] 2C] 2F] 2A-	8.f] 8.a-] 8.ccL	2c]	>
.	16fJk	.	.
.	4f	.	]
4r	4r	4r	.
*	*v	*v	*
=138	=138	=138
(8.cL	(8.ccL	>
16FJk)	16fJk)	.
4F	4f	]
4r	4r	.
!!LO:LB:g=original
=139	=139	=139
!	!LO:TX:a:B:t=Ritard.	!
(4AAA-' 4EE-'	(4c' 4e-' 4f'	.
4AAA-' 4EE-'	4c' 4e-' 4f'	.
4AAA-') 4EE-'	4c') 4e-' 4f'	.
=140	=140	=140
2.AAAn 2.EE-	2.c 2.e- 2.g-	<
=141	=141	=141
4AAn' 4E-' (4G-'	(4c' 4e-' 4g-'	.
4AA' 4E-' 4G-'	4c' 4e-' 4g-'	.
4AA' 4E-' 4G-')	4c') 4e-' 4g-'	.
=142	=142	=142
2.BB-; 2.E-; 2.Gn;	2.B-; 2.e-; 2.gn;	sf
=143	=143	=143
*	*^	*
!	!LO:TX:a:B:t=a Tempo	!	!
4BBB- 4BB-	(8gL	4A- 4d	p
.	8fJ)	.	.
4BBB- 4BB-	(16fLL	4A- 4d	.
.	16g	.	.
.	16f	.	.
.	16enJJ)	.	.
4BBB- 4BB-	(8fL	4A- 4d	.
.	8gJ)	.	.
*	*v	*v	*
=144	=144	=144
4EE- 4E-	16G 16e-XLL	.
.	16f	.
.	16e-	.
.	16dJJ	.
4r	12e-'L	.
.	12f'	.
.	12g'J	.
4r	12a-'L>	.
.	12b-'	.
.	12cc'J	.
!!LO:LB:g=original
=145	=145	=145
*	*Xtuplet	*
2.r	12dd'L	.
.	12ee-'	.
.	12ff'J	.
.	12ff#'L	.
.	12gg'	.
.	12aa-'J	.
.	12aan'L	.
.	12bb-'	.
.	12bbn'J	.
*clefG2	*	*
=146	=146	=146
2a- 2cc 2ee-	(8.cccL	.
.	16ffnJk)	.
.	4ff	.
4r	4r	.
*clefF4	*	*
=147	=147	=147
.	(8bnq	.
2A- 2c 2e-	(8.ccL)	.
.	16fJk)	.
.	4f	.
4r	4r	.
*	*clefF4	*
=148	=148	=148
!	!LO:TX:B:a:t=Ritard.	!
(4AAA-' 4AA-'	4C' 4E-' (4F'	.
4AAA-' 4AA-'	4C' 4E-' 4F'	.
4AAA-') 4AA-'	4C' 4E-' 4F')	.
=149	=149	=149
2.AAAn 2.AAn	2.C 2.E- 2.G-	.
*clefG2	*clefG2	*
=150	=150	=150
(4an'	4cc' 4ee-' (4gg-'	<
4a'	4cc' 4ee-' 4gg-'	.
4a')	4cc' 4ee-' 4gg-')	.
=151	=151	=151
2.b-;	2.ee-; 2.ggn;	sf
*clefF4	*	*
!!LO:LB:g=original
=152	=152	=152
*	*^	*
!	!LO:TX:B:a:t=a Tempo	!	!LO:DY:rj
4BBB- 4BB-	(8gL	4A- 4d	p
.	8fJ)	.	.
4BBB- 4BB-	(16fLL	4A- 4d	.
.	16g	.	.
.	16f	.	.
.	16enJJ)	.	.
4BBB- 4BB-	(8fL	4A- 4d	.
.	8gJ)	.	.
*	*v	*v	*
=153	=153	=153
8EE- 8E-L	4G 4e-X	.
8E-	.	.
8E-	4r	.
8E-	.	.
8E-	4r	.
8E-J	.	.
=154	=154	=154
*^	*	*
.	.	(8dddq	.
2.c 2.e-	8E-L	(8.eee-L)	.
.	8E-	.	.
.	.	16aa-Jk)	.
.	8E-	4aa-	.
.	8E-	.	.
.	8E-	4r	.
.	8E-J	.	.
=155	=155	=155	=155
.	.	8ddq	.
2.B- 2.d	8E-L	(8.ee-L	.
.	8E-	.	.
.	.	16gJk)	.
.	8E-	4g	.
.	8E-	.	.
.	8E-	4r	.
.	8E-J	.	.
=156	=156	=156	=156
4A- 4c	8E-L	(16ee-LL	.
.	.	16fJJ)	.
.	8E-	8r	.
4A- 4c	8E-	(16ee-LL	.
.	.	16fJJ)	.
.	8E-	8r	.
4A- 4c-	8E-	(16ddLL<	.
.	.	16fJJ)	.
.	8E-J	8r	.
=157	=157	=157	=157
4G 4B-	8E-L	(16ee-LL<	.
.	.	16e-JJ)	.
.	8E-	8r	.
4r	8E-	4r	.
.	8E-	.	.
4r	8E-	4r	.
.	8E-J	.	.
!!LO:LB:g=original
=158	=158	=158	=158
2.c 2.e-	8E-L	16r	.
.	.	(16eee-LL	<
.	8E-	16ddd	.
.	.	16eee-JJ	.
.	8E-	16dddLL	.
.	.	16eee-	.
.	8E-	16fff	.
.	.	16eee-JJ)	.
.	8E-	4aa-	.
.	8E-J	.	.
=159	=159	=159	=159
2.B- 2.d	8E-L	16r	.
.	.	(16ee-LL	.
.	8E-	16dd	.
.	.	16ee-JJ	.
.	8E-	16ddLL	.
.	.	16ee-	.
.	8E-	16ff	.
.	.	16ee-JJ)	.
.	8E-	4g	.
.	8E-J	.	.
=160	=160	=160	=160
4A- 4c	8E-L	16r	.
.	.	(16fLL	.
.	8E-	16dd	.
.	.	16ee-JJ)	.
4A- 4c	8E-	16r	.
.	.	(16fLL	.
.	8E-	16dd	.
.	.	16ee-JJ)	.
4A- 4c-	8E-	16r	.
.	.	(16fLL	.
.	8E-J	16cc#	.
.	.	16ddJJ)	.
*v	*v	*	*
=161	=161	=161
4E- 4G 4B-	(16e- 16ee-LL	p
.	16f	.
.	16e-	.
.	16dJJ	.
4r	16e-LL	.
.	16f	.
.	16g	.
.	16a-JJ	.
8r	8b-'L)	.
8G'	8g'J	.
!!LO:LB:g=original
=162	=162	=162
8F'L	8f'L	.
8A-'	8a-'	.
8D'	8d'	.
8F'	8f'	.
8BB-'	8B-'	.
8D'J	8d'J	.
=163	=163	=163
4E-'	(16e-LL	.
.	16f	.
.	16e-	.
.	16dJJ	.
4r	16e-LL	.
.	16f	.
.	16g	.
.	16a-JJ	.
(16cLL	16ccLL	.
16B-	16b-	.
16A-	16a-	.
16GJJ)	16gJJ)	.
=164	=164	=164
8F'L	8f'L	.
8A-'	8a-'	.
8D'	8d'	.
8F'	8f'	.
8BB-'	8B-'	.
8D'J	8d'J	.
=165	=165	=165
8E-'L	8e-'L	.
8G'	8g'	.
8C	8c'	.
8E-'	8e-'	.
8AAn'	8An'	.
8C'J	8c'J	.
=166	=166	=166
8FF'L<	8F'L	.
8AAn'	8An'	.
8C'	8c'	.
8En'	8en'	.
8F'	8f'	.
8AA'J	8A'J	.
!!LO:LB:g=original
=167	=167	=167
8BB-'L	8B-'L	.
8D'	8d'	.
8F'	8f'	<
8An'	8an'	.
8B-'	8b-'	.
8d'J	8dd'J	.
*clefG2	*	*
=168	=168	=168
8f'L	8ff'L	f
8anJ	8aan'J	.
4b-'	4bb-'	.
*clefF4	*	*
!	!LO:TX:c:i:t=d.	!LO:DY:b=2:rj
4B-'	4r	f
=169	=169	=169
!	!	!LO:DY:b=2:rj
4BB-'	4r	f
!	!	!LO:DY:b=2:rj
4BBB-'	4r	f
!	!	!LO:DY:b=2:rj
4AAA-X	8r	f
.	8bb-'	p
=170	=170	=170
(8GGGL<	4.eee-	.
16B-L	.	.
16e-JJ	.	.
16GLL	.	.
16e-	.	.
16B-	(16dddLL	.
16e-JJ	16eee-JJ	.
16GLL	8fffL	.
16e-	.	.
16B-	8eee-J)	.
16e-JJ	.	.
=171	=171	=171
16GLL	4.bb-	.
16e-	.	.
16B-	.	.
16e-JJ	.	.
16GLL	.	.
16e-	.	.
16B-	(16cccLL	.
16e-JJ	16bb-JJ	.
16GLL	8aa-XL	.
16e-	.	.
16B-	8ggJ)	.
16e-JJ)	.	.
!!LO:LB:g=original
=172	=172	=172
16A-LL	(16bbnLL	.
16e-	16cccJJ)	.
16c	8r	.
16e-JJ	.	.
16A-LL	(16bbLL	.
16e-	16cccJJ)	.
16c	8r	.
16e-JJ	.	.
16A-LL	(16ggLL	.
16en	16aa-JJ)	.
16c	8r	.
16eJJ	.	.
=173	=173	=173
16A-LL	(16eenLL	.
16f	16ffJJ)	.
16c	8r	.
16fJJ	.	.
16A-LL	4r	.
16f	.	.
16c	.	.
16fJJ	.	.
16AnLL	8r	.
16f	.	.
16e-X	8ff	.
16fJJ	.	.
=174	=174	=174
16B-LL	4.aa-	.
16f	.	.
16d	.	.
16fJJ	.	.
16FLL	.	.
16d	.	.
16B-	(16bb-LL	.
16dJJ	16aa-JJ	.
16DLL	8ggL	.
16B-	.	.
16F	8ffJ)	.
16B-JJ	.	.
=175	=175	=175
16BB-LL	(8ee-XL	.
16A-X	.	.
16F	8dd	.
16A-JJ	.	.
16BB-LL	8cc	.
16A-	.	.
16F	8b-	.
16A-JJ	.	.
16BBnLL	8a-	.
16A-	.	.
16D	8fJ)	.
16A-JJ	.	.
!!LO:LB:g=original
=176	=176	=176
16CLL	(8e-L	.
16G	.	.
16E-	8g	.
16GJJ	.	.
16AA-LL	8c	.
16F	.	.
16C	8a-	.
16FJJ	.	.
16BB-XLL	8d	.
16F	.	.
16D	8fJ)	.
16A-JJ	.	.
=177	=177	=177
4EE- 4E-	16e-LL	.
.	16G	.
.	16B-	.
.	16A-JJ	.
*	*tuplet	*
4r	(20GLL	.
.	20A-	.
.	20B-	.
.	20c	.
.	20dJJ)	.
4r	(48e-LLL	.
.	48d	.
.	48f	.
.	48e-	.
.	48g	.
.	48f	.
.	48e-	.
.	48d	.
.	48c	.
.	48B-	.
.	48c	.
.	48A-JJJ)	.
=178	=178	=178
2.r	(16GLL	.
.	16B-	.
.	16A-	.
.	16GJJ	.
.	16A-LL	.
.	16B-	.
.	16c	.
.	16dJJ	.
.	16e-LL	.
.	16d	.
.	16c	.
.	16B-JJ)	.
!!LO:LB:g=original
=179	=179	=179
2.r	(16cLL	.
.	16d	.
.	16e-	.
.	16fJJ	.
.	16gLL	.
.	16f	.
.	16e-	.
.	16dJJ	.
.	16e-LL	.
.	16f	.
.	16g	.
.	16a-JJ)	.
=180	=180	=180
2.r	(16ccLL<	.
.	16b-	.
.	16a-	.
.	16gJJ	.
.	16a-LL	.
.	16b-	.
.	16cc	.
.	16ddJJ	.
.	16ee-LL	.
.	16dd	.
.	16cc	.
.	16b-JJ	.
=181	=181	=181
2.r	16ccLL	.
.	16dd	.
.	16ee-	.
.	16ffJJ	.
.	16ggLL	.
.	16ff	.
.	16ee-	.
.	16ddJJ	.
.	16ee-LL	.
.	16ff	.
.	16gg	.
.	16aa-JJ	.
=182	=182	=182
2.r	16cccLL	.
.	16bb-	.
.	16aa-	.
.	16ggJJ	.
.	12bb-L	.
.	12aa-	.
.	12ggJ	.
.	16aa-LL	.
.	16bb-	.
.	16ccc	.
.	16dddJJ)	.
!!LO:LB:g=original
=183	=183	=183
16GLL	4.eee-	.
16e-	.	.
16B-	.	.
16e-JJ	.	.
16GLL	.	.
16e-	.	.
16B-	(16dddLL	.
16e-JJ	16eee-JJ)	.
16GLL	(16dddLL	.
16e-	16eee-)	.
16B-	(16fff	.
16e-JJ	16eee-JJ)	.
=184	=184	=184
16GLL	4.bb-	.
16e-	.	.
16B-	.	.
16e-JJ	.	.
16GLL	.	.
16e-	.	.
16B-	(16aanLL	.
16e-JJ	16bb-JJ)	.
16GLL	(16cccLL	.
16e-	16bb-)	.
16B-	(16aa-	.
16e-JJ	16ggJJ)	.
=185	=185	=185
16A-LL	(16bbnLL	.
16e-	16ccc)	.
16c	(16bb	.
16e-JJ	16cccJJ)	.
16A-LL	(16bbLL	.
16e-	16ccc)	.
16c	(16bb	.
16e-JJ	16cccJJ)	.
16A-LL	(16ggLL	.
16en	16aa-)	.
16c	(16gg	.
16eJJ	16aa-JJ)	.
=186	=186	=186
16A-LL	(16eenLL	.
16f	16ff)	.
16c	(16ee	.
16fJJ	16ffJJ)	.
16A-LL	4r	.
16f	.	.
16c	.	.
16fJJ	.	.
16AnLL	8r	.
16f	.	.
16e-X	8ff'	.
16fJJ	.	.
!!LO:LB:g=original
=187	=187	=187
16B-LL	(4.aa-	.
16f	.	.
16d	.	.
16fJJ	.	.
16FLL	.	.
16d	.	.
16B-	16ggLL	.
16dJJ	16aa-JJ	.
16DLL	16bb-LL	.
16B-	16aa-	.
16F	16gg	.
16B-JJ	16ffJJ	.
=188	=188	=188
16BB-LL	16ee-LL	.
16A-	16dd	.
16F	16gg	.
16A-JJ	16ffJJ	.
16BB-LL	16ee-LL	.
16A-	16dd	.
16F	16cc	.
16A-JJ	16b-JJ	.
16BBnLL	16a-LL<	.
16A-	16g	.
16D	16a-	.
16A-JJ	[<16fJJ)	.
=189	=189	=189
16CLL	16fLL]	.
16G	16e-J	.
16E-	8.gJ	.
16GJJ	.	.
16AA-LL	.	.
16F	(16cLK	.
16C	8.a-J)	.
16FJJ	.	.
16BB-XLL	.	.
16F	(16dLK	.
16D	8fJ)	.
16A-JJ	.	.
=190	=190	=190
16E-LL	8e-	.
16G	.	.
16A-	8r	.
16B-JJ	.	.
4r	16cLL	.
.	16d	.
.	16e-	.
.	16fJJ	.
4r	16gLL	.
.	16a-	.
.	16b-	.
.	16ccJJ	.
!!LO:LB:g=original
=191	=191	=191
8r	2b-	.
8D 8F 8B-L	.	.
8D 8F 8B-	.	.
8D 8F 8B-	.	.
8D 8F 8B-	4a-T	.
8D 8F 8B-J	.	.
.	(16gqLL	.
.	16a-qJJ)	.
*clefG2	*	*
=192	=192	=192
16e-LL	16g	.
16g	16r	.
16a-	8r	.
16b-JJ	.	.
4r	16ccLL	.
.	16dd	.
.	16ee-	.
.	16ffJJ	.
4r	16ggLL	.
.	16aa-	.
.	16bb-	.
.	16cccJJ	.
=193	=193	=193
8r	2bb-	.
8d 8f 8b-L	.	.
8d 8f 8b-	.	.
8d 8f 8b-	.	.
8d 8f 8b-	4aa-T	.
8d 8f 8b-J	.	.
.	(16ggqLL	.
.	16aa-qJJ)	.
=194	=194	=194
8r	4gg	.
8e- 8g	.	.
8r	4ffT	.
8Bn 8d 8g	.	<
.	(16eenqLL	.
.	16ffqJJ	.
8r	4ee-)	.
8c 8e-X 8g	.	.
*clefF4	*	*
=195	=195	=195
8r	4dd-T	.
8G 8B-X 8e-	.	.
.	(16ccqLL	.
.	16dd-qJJ)	.
8r	4cc	.
8A- 8c 8e-	.	.
8r	4b-T	.
8En 8G 8c	.	.
.	(16anqLL	.
.	16b-qJJ)	.
!!LO:LB:g=original
=196	=196	=196
8r	4an	.
8F 8An 8c	.	.
8r	4a-T	.
8D 8F 8B-	.	.
.	(16gqLL	.
.	16a-qJJ	.
8r	4g)	.
8E- 8G 8B-	.	.
=197	=197	=197
8r	4fT	.
8BBn 8D 8G	.	.
.	(16enqLL	.
.	16fqJJ	.
8r	4e-)	.
8C 8E-X 8G	.	.
8r	4d-T	.
8GG 8BB- 8E-	.	.
.	(16cqLL	.
.	16d-qJJ)	.
=198	=198	=198
8r	4c	.
8AA- 8C 8E-	.	.
8r	4B-T	.
8EEn 8GG 8C	.	.
.	(16AnqLL	.
.	16B-qJJ	.
8r	4An)	.
8FF 8AAn 8C	.	.
=199	=199	=199
8r	4A-XT	f
8DD 8FF 8BB-	.	.
.	(16GqLL	.
.	16A-qJJ	.
8r	4G)	.
8EE- 8GG 8BB-	.	.
8r	4a-T	p
8DD 8FF 8BB-	.	.
.	(16gqLL	.
.	16a-qJJ)	.
=200	=200	=200
8r	4g	.
8EE- 8GG 8BB-	.	.
8r	4A-T	f
8DD 8FF 8BB-	.	.
.	(16GqLL	.
.	16A-qJJ	.
8r	4G)	.
8EE- 8GG 8BB-	.	.
!!LO:LB:g=original
=201	=201	=201
8r	4a-T	p
8DD 8FF 8BB-	.	.
.	(16gqLL	.
.	16a-qJJ	.
8r	4g)	.
8EE- 8GG 8BB-	.	.
8r	4A-T	f
8DD 8FF 8BB-	.	.
.	(16GqLL	.
.	16A-qJJ)	.
=202	=202	=202
8EE- 8GG 8BB-	16G<LL	p
.	16E-<	.
8rEE	16BB-<	.
.	16E-<JJ	.
4rEE	16G<LL	.
.	16E-<	.
.	16B-<	.
.	16G<JJ	.
4rEE	16e-LL	.
.	16B-	.
.	16g	.
.	16e-JJ	.
=203	=203	=203
2.r	16B-LL	.
.	16G	.
.	16e-	.
.	16B-JJ	.
.	16gLL	.
.	16e-	.
.	16b-	.
.	16gJJ	.
.	16e-LL	.
.	16B-	.
.	16g	.
.	16e-JJ	.
=204	=204	=204
2.r	16b-LL	<
.	16g	.
.	16ee-	.
.	16b-JJ	.
.	16gLL<	.
.	16e-	.
.	16b-	.
.	16gJJ	.
.	16ee-LL	.
.	16b-	.
.	16gg	.
.	16ee-JJ	.
*clefG2	*	*
=205	=205	=205
8r	8bb-'	.
8B-'L	8b-'L	.
8e-'	8ee-'	.
8g'	8gg'	.
8b-'J	8bb-'J	.
8r	8B-'	.
*clefF4	*	*
!!LO:LB:g=original
=206	=206	=206
4r	8e-'L	<
.	8g'	.
8r	8b-'J	.
8BBB-'L	8BB-<'L	.
8EE-'	8E-<'	.
8GG'J	8G<'J	.
=207	=207	=207
8BB-'L	8B-'L	f
8E-'	8e-'	.
8G'	8g'	.
8B-'	8b-'	.
8e-'	8ee-'	.
8g'J	8gg'J	.
=208	=208	=208
4b->	8bb-'L	fp
.	(8aan	.
4r	8ccc)	.
.	8bb-'>	.
4r	8aa-'>	.
.	8gg'>J	.
=209	=209	=209
8r	[2.ffTT\	.
8B-'L	.	.
8d'	.	.
8f>'>	.	.
8a->'>	.	.
8BB-'J	.	.
=210	=210	=210
8D'L	2.ff_TTT	<
8F'	.	.
8A-'	.	.
8C-'	.	.
8D'	.	.
8F'J	.	.
=211	=211	=211
8A-'L	2.ff_TTT	.
8BB-'	.	.
8D'	.	.
8F'	.	.
8A-'	.	.
8B-'J	.	.
*clefG2	*	*
!!LO:LB:g=original
=212	=212	=212
8d'L	2ff]TTT	f
8f'	.	.
8a-'	.	.
8B-'	.	.
.	(16eenqLL	.
.	16ffqJJ	.
8a-'	8bb-'L)	.
8B-'J	8bb-'J	.
=213	=213	=213
4e- 4g	8ee-	.
.	(8ee-L	p
4r	8een	.
.	8ff	.
4r	8ff#	.
.	8ggJ)	.
=214	=214	=214
((2.c 2.e-	(>2.aa-	.
=215	=215	=215
*	*^	*
2.A- 2.f))	2.cc)	2.a-	.
=216	=216	=216	=216
*^	*	*	*
4B- 4f	4ryy	(8ee-L	4a-	.
.	.	8ddJ)	.	.
*	*	*v	*v	*
.	.	(8ee-q	.
*	*	*^	*
4B- 4f	4ryy	(8ddL)	4a-	.
.	.	8cc	.	.
(8fL	4B-	8dd	4a-	.
8dJ)	.	8ffJ)	.	.
*v	*v	*	*	*
*clefF4	*	*	*
*	*v	*v	*
=217	=217	=217
8E-' 8e-'	8g' 8ee-'	.
(8E-L	(8e-L	<
8En	8en	.
8F	8f	.
8F#	8f#	.
8GJ)	8gJ)	.
=218	=218	=218
2.A-	2.a-	f
!!LO:LB:g=original
=219	=219	=219
*^	*^	*
(2C	2.AA-	(2c	2.A-	.
8D-L	.	8d-L	.	>
8E-XJ)	.	8e-XJ)	.	]]
*	*	*v	*v	*
=220	=220	=220	=220
2F 2A-	2DD- 2AA- 2BB- 2D-	(8.fL	.
.	.	16B-Jk)	.
.	.	4B-	.
4r	4r	4r	.
=221	=221	=221	=221
2F 2A-	2DD- 2AA- 2BB- 2D-	(8.fL	.
.	.	16B-Jk)	.
.	.	4B-	.
4r	4r	4r	.
=222	=222	=222	=222
4F' 4A-' (4B-'	4DD- 4D-	2.ryy	.
4F' 4A-' 4B-'	4DD- 4D-	.	.
4F' 4A-' 4B-')	4DD- 4D-	.	.
=223	=223	=223	=223
2.F 2.A- 2.c-	2.DDn 2.Dn	2.ryy	.
*v	*v	*	*
=224	=224	=224
(4d'	(4f 4a- 4cc-	.
4d'	4f' 4a-' 4cc-'	.
4d')	4f') 4a-' 4cc-'	.
=225	=225	=225
*^	*	*
2ryy	2e-	2.g- 2.a- 2.ccn	.
4G- 4A- (4c	(4EE- 4E-	.	.
!!LO:LB:g=original
=226	=226	=226	=226
*	*	*^	*
4A- 4d-)	4FF- 4F-)	4ryy	4ryy	.
4r	4r	4r	4ryy	.
4ryy	4ryy	(4a- 4dd-	(4f-	.
=227	=227	=227	=227	=227
4ryy	4ryy	4a- 4cc- 4ddn)	4fn)	.
4r	4ryy	4r	4r	.
(4A- 4c- 4dn	(4FFn 4Fn	4ryy	4ryy	.
*	*	*v	*v	*
=228	=228	=228	=228
4B- 4e-)	4GG-) 4G-	4ryy	.
4r	4r	4r	.
4ryy	(4g->	(4b- 4ee-	.
*v	*v	*	*
=229	=229	=229
*	*^	*
4gn>)	4b- 4dd- 4een)	4ryy	.
4r	4r	4r	.
(4GGn\ 4Gn\	(4B- 4d- 4en	4ryy	.
*	*v	*v	*
=230	=230	=230
!	!LO:TX:a:B:t=Ritard.	!
4AA- 4A-)	(4c') 4f'	<
4AA- 4A-	4c' 4f'	.
4AA- 4A-	4c') 4f'	[[
=231	=231	=231
2.AAn 2.An	2.c 2.e- 2.g-	<
*clefG2	*	*
=232	=232	=232
(4an'	4cc' 4ee-' (4gg-'	.
4a'	4cc' 4ee-' 4gg-'	.
4a')	4cc' 4ee-' 4gg-')	.
=233	=233	=233
2.b-;	2.ee-; 2.ggn;	sf
*clefF4	*	*
!!LO:LB:g=original
=234	=234	=234
*	*^	*
!	!LO:TX:a:B:t=a Tempo	!	!LO:DY:rj
4BBB- 4BB-	(8gL	4A- 4d	p
.	8fJ)	.	.
4BBB- 4BB-	(16fLL	4A- 4d	.
.	16g	.	.
.	16f	.	.
.	16enJJ)	.	.
4BBB- 4BB-	(8fL	4A- 4d	.
.	8gJ)	.	.
=235	=235	=235	=235
4EE- 4E-	16e-XLL	4G	.
.	16f	.	.
.	16e-	.	.
.	16dJJ	.	.
4r	16e-LL	4ryy	.
.	16en	.	.
.	16f	.	.
.	16f#JJ	.	.
4r	16gLL	4ryy	<
.	16a-	.	.
.	16an	.	.
.	16b-JJ	.	.
*	*v	*v	*
=236	=236	=236
2.r	16bnLL	.
.	16cc	.
.	16cc#	.
.	16ddJJ	.
.	16ee-LL	.
.	16een	.
.	16ff	.
.	16ff#JJ	.
.	(20ggLL	.
.	20aa-	.
.	20aan	.
.	20bb-	.
.	20bbnJJ)	.
*clefG2	*	*
=237	=237	=237
2a- 2cc 2ee-	(8.cccL	p
.	16ffJk)	.
.	4ff	.
4r	4r	.
*clefF4	*	*
=238	=238	=238
.	(8bnq	.
2A- 2c 2e-	(8.ccL)	.
.	16fJk)	.
.	4f	.
4r	4r	.
*	*clefF4	*
!!LO:LB:g=original
=239	=239	=239
!	!LO:TX:a:B:t=Ritard.	!
(4AAA-' 4AA-'	4C' 4E-' (4F'	.
4AAA-' 4AA-'	4C' 4E-' 4F'	.
4AAA-' 4AA-')	4C 4E- 4F)	.
=240	=240	=240
2.AAAn 2.AAn	2.C 2.E- 2.G-	.
*clefG2	*clefG2	*
=241	=241	=241
4an 4cc	(4ee-' 4gg-'	.
4a' 4cc'	4ee-' 4gg-'	.
4a' 4cc'	4ee-' 4gg-')	.
=242	=242	=242
4b-	4ee- 4ggn	.
4r	4r	.
(4an 4cc	[4ee- (4ff#	p
=243	=243	=243
!	!LO:TX:a:B:t=a Tempo	!
4b-)	4ee-] 4gg)	.
4r	4r	.
(4an 4cc	[4ee- (4ff#	.
=244	=244	=244
4b-)	4ee-] [4gg)	.
4r	(16ggLL]	<
.	16aa-	.
.	16bb-	.
.	16ggJJ	.
4r	16eenLL	.
.	16ff	.
.	16gg	.
.	16ee-JJ	.
!!LO:LB:g=original
=245	=245	=245
4B- 4f 4a-	16cc#LL	.
.	16dd	.
.	16ee-	.
.	16ccnJJ	.
4r	16anLL<	.
.	16b-	.
.	16cc	.
.	16a-JJ	.
*clefF4	*	*
4BB- 4D 4A-	16f#LL	.
.	16g	.
.	16a-	.
.	16fnJJ)	.
=246	=246	=246
(16E-LL	4G 4e-	p
16F	.	.
16E-	.	.
16DJJ	.	.
16E-LL	4r	.
16F	.	.
16G	.	.
16A-JJ)	.	.
8B-'L	4r	.
8G'J	.	.
=247	=247	=247
8F'L	(16b-LL	<
.	16cc	.
8A-'	16b-	.
.	16anJJ	.
8D'	16b-LL	.
.	16cc	.
8F'	16dd	.
.	16ee-JJ)	.
8BB-'	8ff'L	.
8D'J	8a-'J	.
=248	=248	=248
(16E-LL	4g	.
16F	.	.
16E-	.	.
16DJJ	.	.
16E-LL	4r	.
16F	.	.
16G	.	<
16A-JJ	.	.
16cLL	4r	.
16B-	.	.
16A-	.	.
16GJJ)	.	.
!!LO:LB:g=original
=249	=249	=249
8F'L	(16bb-LL	.
.	16ccc	.
8A-'	16bb-	.
.	16aanJJ	.
8D'	16bb-LL	.
.	16ccc	.
8F'	16ddd	.
.	16eee-JJ	.
8BB-'	16fffLL	.
.	16ddd	.
8D'J	16bb-	.
.	16aa-JJ)	.
=250	=250	=250
8E-'L<	4gg	p
8BB-'	.	.
8GG'	8r	.
8E-'	8e-'L	.
8BB-'	8B-'	.
8G'J	8g'J	.
=251	=251	=251
8E-'L	8e-'L	.
8B-'	8b-'	.
8G	8g'	.
8e-'	8ee-'	.
8B-'	8b-'	.
8g'J	8gg'J	.
*clefG2	*	*
=252	=252	=252
8e-'L<	8ee-'L	.
8b-'	8bb-'	.
8g'	8gg'	.
8ee-'J	8eee-'J	.
*clefF4	*	*
4BB-' 4B-'	4f' 4a-' 4dd'	f
=253	=253	=253
4EE-' 4E-'	4e-' 4g' 4ee-'	.
4r	4r	.
4r	4r	.
==	==	==
*-	*-	*-
!!!RDF**kern: > = above
!!!RDF**kern: < = below
!!!verovio: beamFrenchStyle
!!!LOR: Durand 1915, plates 9327/9328, Paul Dukas, ed.
!!!PED: Dukas, Paul
!!!URL-vhv: https://verovio.humdrum.org/?file=beethoven/sonatas/sonata18-1.krn
!!!URL-pdf: https://github.com/craigsapp/beethoven-piano-sonatas/blob/master/reference-edition/sonata18-1.pdf
!!!ENC: Craig Stuart Sapp
!!!END: 2004/11/21
!!!EED: Craig Stuart Sapp
!!!EEV: 2021/07/04
